X: 4103
T: SMA' COALS FOR NAILERS
R: Reel.
%R: reel
B: James Kerr "Merry Melodies" v.4 p.13 #103
Z: 2016 John Chambers <jc:trillian.mit.edu>
M: C|
L: 1/8
K: Em
uF |\
E2EF G2GB | ABAG FEDF |\
E2EF G2GB | efe^d e3 ::\
B |\
eBef g2(fe) | defg afdf |\
[1 eBef g2(fe) | efe^d e3 :|\
[2 ~g2bg ~f2af | gfe^d e3 |]

%%sep 1 1 500
%%sep 1 1 500

